X:101
T:101 Untitled Waltz
C:Welch MS
I:abc2nwc
M:3/4
L:1/8
K:D
A2|A3f ed|(dc) c2A2|A3g fe|(ed) d2A2|A3f ed|(dc) c2AB|cdefge|d4A2|
A3f ed|(dc) c2A2|A3g fe|(ed) d2A2|A3f ed|(dc) c2AB|cdefge|d4||
f2|a2g2f2|g2f2e2|dcBABc|defg a2|a2g2e2|g2f2d2|dcBABc|d4f2|
a2g2f2|g2f2e2|dcBABc|defg a2|a2g2e2|g2f2d2|dcBABc|d4||
d2|f2^e2f2|d4A2|f2^e2f2|d2A2f2|g2f2g2|e2^d2e2|cAcdef|d4d2|
f2^e2f2|d4A2|f2^e2f2|d2A2f2|g2f2g2|e2^d2e2|cAcdef|d4|]

